X: 163
T: Yaolan qu
%%abc-version 2.0
%%abcx-abcm2ps-target-version 5.9.1 (29 Sep 2008)
%%abc-creator hum2abc beta
%%abcx-conversion-date 2013/10/02 07:44:27
%%abc-edited-by Helmut Schaffrath
%%humdrum-veritas 493391109
%%humdrum-veritas-data 1510456592
%%continueall 1
%%barnumbers 0
L: 1/8
M: 4/4
K: F
G4c z [I:setbarnb 1]| 
A c/ A/ G A/ G/ F D | 
F4F z | 
F G A c/ A/ G A A/ G/ F | 
[M:3/4]G4c z | 
[M:4/4]G A c> A G A G F/ D/ | 
[M:3/4]F4F z | 
[M:4/4]F G A c/ A/ G A A/ G/ F | 
[M:3/4]G4c z | 
[M:4/4]G A c> A G A G F/ D/ | 
[M:3/4]F4F z | 
G4c z | 
A c/ A/ G A/ G/ F D | 
F4F z |]  



